X:1
T:Title
%%score { ( 1 4 5 ) | ( 2 3 ) }
L:1/8
M:4/4
K:G
V:1 treble nm="Grand Piano"
V:4 treble 
V:5 treble 
V:2 bass 
V:3 bass 
V:1
 z4 z2[Q:1/4=100] DD | [B,B]2 [B,F]2 [B,A]2 [B,E]2 | G2 z2 z4 | [Ad]2 [DFA]2 [D=F^G]2 [D^FA]2 | %4
 [DGB]6 [DB]>[DB] | [^DB]2 F2 G2 E>E | [A,DA]2 [_B,^CEF]2 [F,=B,D]2 [B,EG]2 | z4 [^CF]2 z2 | z8 | %9
 F,>E[K:treble] F>G A2 B>B | z4 [^Fc]4[K:bass] | F>G A>B [Ac]2 [_B^c]>[Bc] | %12
 [DGBd]2 [G_B^c]2 [G=Bd]2 ^d>d | z4 z2 A2 | [DGd]2 [FAB]2 [B,EG]2 [CEAc]2 | %15
 [DGB]2 B>c [CDFB]2 [DFA]2 |[M:3/4] [B,DG]2 [B,DG]2 [B,DG]2 |] %17
V:2
 z8 | [G,,D,]2 [G,,D,]2 [G,,D,]2 z z/ E/ | B,,2 _B,,2 [A,,D,]2 [F,A,C]2 | [F,D]2 C2 B,2 C2 | %4
 G,2 D,2 B,,2 [G,,G,]2 | [B,,F,]2 [^D,A,B,]2 [E,G,B,]2 [G,_B,D]2 | F,2 _B,,2 =B,,2 z z/ G/ | %7
 A,,2 z z/ G/ A,,2 A,,2 | D,2 A,,2 D,,2 z2 | z z/ G,/ [D,D]->[D,B,D] [D,C]2 [B,DE^G]2 | z4 D4 | %11
 [D,D]->[D,B,D] C>B, [D,A,D]2[K:treble] E>E | z2 E2 D2[K:bass] [F,,F,]2 | %13
 [E,,E,]2 [^G,,^G,]2 [A,,A,]2 [C,C]2 | [B,,B,]2 [^D,B,]2 [E,,E,]2 z z/[K:treble] c/ | %15
 z2 [DG]2[K:bass] z2 C2 |[M:3/4] G,2 D,2 G,,2 |] %17
V:3
 x8 | z4 z2 [G,,G,]2 | x8 | D,8 | x8 | x8 | z4 z2 E,2 | z2 A,,2 z4 | x8 | D,2 A,2 z4 | %10
 [D,A,D]2 [D,^G,D]2 [D,A,]2 z2 | A,2 [D,D]2 z4[K:treble] | G,6[K:bass] z2 | x8 | %14
 z4 z2 [A,,A,]2[K:treble] | D,4[K:bass] D,,4 |[M:3/4] x6 |] %17
V:4
 x8 | x8 | [G,D]2- [G,DE]2 [CF]2 D>D | x8 | x8 | x8 | x8 | [A,DF]2 [A,DF]2 A,2- [G,A,-^CE]2 | %8
 [F,A,D]6 z2 | D2[K:treble] z2 z4 | [FAc]2 [=FB]2 z z/[K:bass] F,/ z z/ F,/ | x8 | z4 z2 [AB]2 | %13
 [EGBe]2 [DEB]2 [CEAc]2 [EG]->[EGA] | x8 | x8 |[M:3/4] x6 |] %17
V:5
 x8 | x8 | x8 | x8 | x8 | x8 | x8 | x8 | x8 | x2[K:treble] x6 | z4 z2[K:bass] A,2 | x8 | x8 | x8 | %14
 x8 | x8 |[M:3/4] x6 |] %17

